src/assets/filled/ClipboardImport.svg

<svg width="24" height="24" viewBox="0 0 24 24"  xmlns="http://www.w3.org/2000/svg">
<path d="M14.35 2H9.65001C8.61001 2 7.76001 2.84 7.76001 3.88V4.82C7.76001 5.86 8.60001 6.7 9.64001 6.7H14.35C15.39 6.7 16.23 5.86 16.23 4.82V3.88C16.24 2.84 15.39 2 14.35 2Z" />
<path d="M17.24 4.82047C17.24 6.41047 15.94 7.71047 14.35 7.71047H9.65004C8.06004 7.71047 6.76004 6.41047 6.76004 4.82047C6.76004 4.26047 6.16004 3.91047 5.66004 4.17047C4.25004 4.92047 3.29004 6.41047 3.29004 8.12047V17.5305C3.29004 19.9905 5.30004 22.0005 7.76004 22.0005H16.24C18.7 22.0005 20.71 19.9905 20.71 17.5305V8.12047C20.71 6.41047 19.75 4.92047 18.34 4.17047C17.84 3.91047 17.24 4.26047 17.24 4.82047ZM15.75 17.0005C15.75 17.4105 15.41 17.7505 15 17.7505H12C11.59 17.7505 11.25 17.4105 11.25 17.0005C11.25 16.5905 11.59 16.2505 12 16.2505H13.19L8.47004 11.5305C8.18004 11.2405 8.18004 10.7605 8.47004 10.4705C8.76004 10.1805 9.24004 10.1805 9.53004 10.4705L14.25 15.1905V14.0005C14.25 13.5905 14.59 13.2505 15 13.2505C15.41 13.2505 15.75 13.5905 15.75 14.0005V17.0005Z" />
</svg>

<?xml version="1.0" encoding="UTF-8"?>
<svg width="24" height="24" viewBox="0 0 24 24" xmlns="http://www.w3.org/2000/svg">
 <path d="m14.35 2h-4.7c-1.04 0-1.89 0.84-1.89 1.88v0.94c0 1.04 0.84 1.88 1.88 1.88h4.71c1.04 0 1.88-0.84 1.88-1.88v-0.94c0.01-1.04-0.84-1.88-1.88-1.88z"/>
 <path d="m17.24 4.8205c0 1.59-1.3 2.89-2.89 2.89h-4.7c-1.59 0-2.89-1.3-2.89-2.89 0-0.56-0.6-0.91-1.1-0.65-1.41 0.75-2.37 2.24-2.37 3.95v9.41c0 2.46 2.01 4.47 4.47 4.47h8.48c2.46 0 4.47-2.01 4.47-4.47v-9.41c0-1.71-0.96-3.2-2.37-3.95-0.5-0.26-1.1 0.09-1.1 0.65zm-1.49 12.18c0 0.41-0.34 0.75-0.75 0.75h-3c-0.41 0-0.75-0.34-0.75-0.75s0.34-0.75 0.75-0.75h1.19l-4.72-4.72c-0.29-0.29-0.29-0.77 0-1.06s0.77-0.29 1.06 0l4.72 4.72v-1.19c0-0.41 0.34-0.75 0.75-0.75s0.75 0.34 0.75 0.75v3z"/>
</svg>
